site/static/img/page-mission/icon-femme.svg

<svg height="84" viewBox="-50 0 296 84" width="296" xmlns="http://www.w3.org/2000/svg"><g fill="#ff9ca8" fill-rule="evenodd"><path d="m22.0019935 16c4.4196362 0 7.9980065-3.5792622 7.9980065-7.99800598 0-4.42273181-3.5783703-8.00199402-7.9980065-8.00199402-4.4216297 0-8.0019935 3.57926221-8.0019935 8.00199402 0 4.41874378 3.5803638 7.99800598 8.0019935 7.99800598"/><path d="m32.144611 20.9932851c-.5687081-1.2490717-1.7988924-1.9671371-3.0875608-1.9932851h-14.1209016c-1.2906851.026148-2.5128026.7442134-3.0815107 1.9932851l-11.53953143 25.2167656c-.79659471 1.7338161-.03025043 3.7814086 1.70612436 4.5738953.46787335.2111957.95793035.3117651 1.43790387.3117651 1.31286874 0 2.57128672-.7502476 3.15007831-2.0194331l3.58971789-7.8464228-3.12587793 14.6811177c-.10688486.4948013.02016696 1.0097165.33678814 1.4039485.32065458.3922206.79861141.6215188 1.30480197.6215188h3.46669952v21.9221128c0 2.2869477 1.8573765 4.141447 4.1523759 4.141447 2.2929828 0 4.152376-1.8544993 4.152376-4.141447v-21.9221128h3.0310933v21.9221128c0 2.2869477 1.8593932 4.141447 4.152376 4.141447 2.2929827 0 4.1523759-1.8544993 4.1523759-4.141447v-21.9221128h3.4545994c.5061905 0 .986164-.2292982 1.3027852-.6215188.3186379-.3922206.443673-.9091472.3388049-1.4019371l-3.1359615-14.7213455 3.6078682 7.8846392c.5787916 1.2691855 1.8372096 2.0194331 3.152095 2.0194331.4799735 0 .9680138-.1005694 1.4338705-.3117651 1.7383915-.7924867 2.5047358-2.8400792 1.7101577-4.5738953z"/><path d="m73.0019935 16c4.4196362 0 7.9980065-3.5792622 7.9980065-7.99800598 0-4.42273181-3.5783703-8.00199402-7.9980065-8.00199402-4.4216297 0-8.0019935 3.57926221-8.0019935 8.00199402 0 4.41874378 3.5803638 7.99800598 8.0019935 7.99800598"/><path d="m83.144611 20.9932851c-.5687081-1.2490717-1.7988924-1.9671371-3.0895775-1.9932851h-14.1188849c-1.2906851.026148-2.5128026.7442134-3.0815107 1.9932851l-11.5395314 25.2167656c-.7965947 1.7338161-.0302505 3.7814086 1.7061243 4.5738953.4678734.2111957.9579304.3117651 1.4379039.3117651 1.3128687 0 2.5712867-.7502476 3.1500783-2.0194331l3.5897179-7.8464228-3.1258779 14.6811177c-.1068849.4948013.0201669 1.0097165.3367881 1.4039485.3206546.3922206.7986114.6215188 1.304802.6215188h3.4666995v21.9221128c0 2.2869477 1.8573765 4.141447 4.1523759 4.141447 2.2929828 0 4.152376-1.8544993 4.152376-4.141447v-21.9221128h3.0310933v21.9221128c0 2.2869477 1.8593932 4.141447 4.152376 4.141447 2.2929827 0 4.1523759-1.8544993 4.1523759-4.141447v-21.9221128h3.4545994c.5061905 0 .986164-.2292982 1.3027852-.6215188.3186379-.3922206.443673-.9091472.3388049-1.4019371l-3.1359615-14.7213455 3.6078682 7.8846392c.5787916 1.2691855 1.8372096 2.0194331 3.152095 2.0194331.4799735 0 .9680138-.1005694 1.4338705-.3117651 1.7383915-.7924867 2.5047358-2.8400792 1.7101577-4.5738953z"/><path d="m123.001994 16c4.417642 0 7.998006-3.5792622 7.998006-7.99800598 0-4.42273181-3.580364-8.00199402-7.998006-8.00199402-4.42163 0-8.001994 3.57926221-8.001994 8.00199402 0 4.41874378 3.580364 7.99800598 8.001994 7.99800598"/><path d="m133.144611 20.9932851c-.570725-1.2490717-1.798892-1.9671371-3.089577-1.9932851h-14.118885c-1.290686.026148-2.512803.7442134-3.081511 1.9932851l-11.539532 25.2167656c-.796594 1.7338161-.03025 3.7814086 1.706125 4.5738953.467873.2111957.95793.3117651 1.437904.3117651 1.312868 0 2.571286-.7502476 3.148061-2.0194331l3.591735-7.8464228-3.125878 14.6811177c-.106885.4948013.01815 1.0097165.336788 1.4039485.320655.3922206.798612.6215188 1.304802.6215188h3.4667v21.9221128c0 2.2869477 1.857376 4.141447 4.152376 4.141447 2.292982 0 4.152376-1.8544993 4.152376-4.141447v-21.9221128h3.031093v21.9221128c0 2.2869477 1.859393 4.141447 4.152376 4.141447s4.152376-1.8544993 4.152376-4.141447v-21.9221128h3.454599c.504174 0 .984147-.2292982 1.302785-.6215188s.443673-.9091472.338805-1.4019371l-3.135961-14.7213455 3.607868 7.8846392c.578791 1.2691855 1.837209 2.0194331 3.152095 2.0194331.479973 0 .968014-.1005694 1.43387-.3117651 1.738392-.7924867 2.504736-2.8400792 1.710158-4.5738953z"/><path d="m174.001994 16c4.417642 0 7.998006-3.5792622 7.998006-7.99800598 0-4.42273181-3.580364-8.00199402-7.998006-8.00199402-4.42163 0-8.001994 3.57926221-8.001994 8.00199402 0 4.41874378 3.580364 7.99800598 8.001994 7.99800598"/><path d="m184.145401 20.9932851c-.570725-1.2490717-1.798892-1.9671371-3.089577-1.9932851h-14.118885c-1.290686.026148-2.512803.7442134-3.081511 1.9932851l-11.541548 25.2167656c-.794578 1.7338161-.028234 3.7814086 1.708141 4.5738953.467873.2111957.95793.3117651 1.437904.3117651 1.312868 0 2.571286-.7502476 3.148061-2.0194331l3.591735-7.8464228-3.127895 14.6811177c-.104868.4948013.020167 1.0097165.338805 1.4039485.320655.3922206.798611.6215188 1.304802.6215188h3.464683v21.9221128c0 2.2869477 1.859393 4.141447 4.154393 4.141447 2.292982 0 4.152376-1.8544993 4.152376-4.141447v-21.9221128h3.031093v21.9221128c0 2.2869477 1.859393 4.141447 4.152376 4.141447s4.152376-1.8544993 4.152376-4.141447v-21.9221128h3.452582c.506191 0 .986165-.2292982 1.304802-.6215188.318638-.3922206.443673-.9091472.338805-1.4019371l-3.135961-14.7213455 3.607868 7.8846392c.578792 1.2691855 1.83721 2.0194331 3.152095 2.0194331.479974 0 .968014-.1005694 1.43387-.3117651 1.738392-.7924867 2.504736-2.8400792 1.708142-4.5738953z"/></g></svg>

<?xml version="1.0" encoding="UTF-8"?>
<svg width="296px" height="84px" viewBox="-50 0 296 84" version="1.1" xmlns="http://www.w3.org/2000/svg" xmlns:xlink="http://www.w3.org/1999/xlink">
    <!-- Generator: Sketch 61.1 (89650) - https://sketch.com -->
    <title>Group 19</title>
    <desc>Created with Sketch.</desc>
    <g id="Page-1" stroke="none" stroke-width="1" fill="none" fill-rule="evenodd">
        <g id="HOME-RE" transform="translate(-1246.000000, -1508.000000)" fill="#FF9CA8">
            <g id="Group-19" transform="translate(1246.000000, 1508.000000)">
                <g id="Group-17">
                    <path d="M22.0019935,16 C26.4216297,16 30,12.4207378 30,8.00199402 C30,3.57926221 26.4216297,0 22.0019935,0 C17.5803638,0 14,3.57926221 14,8.00199402 C14,12.4207378 17.5803638,16 22.0019935,16" id="Fill-1"></path>
                    <path d="M32.144611,20.9932851 C31.5759029,19.7442134 30.3457186,19.026148 29.0570502,19 L14.9361486,19 C13.6454635,19.026148 12.423346,19.7442134 11.8546379,20.9932851 L0.315106467,46.2100507 C-0.481488242,47.9438668 0.284856035,49.9914593 2.02123083,50.783946 C2.48910418,50.9951417 2.97916118,51.0957111 3.4591347,51.0957111 C4.77200344,51.0957111 6.03042142,50.3454635 6.60921301,49.076278 L10.1989309,41.2298552 L7.07305297,55.9109729 C6.96616811,56.4057742 7.09321993,56.9206894 7.40984111,57.3149214 C7.73049569,57.707142 8.20845252,57.9364402 8.71464308,57.9364402 L12.1813426,57.9364402 L12.1813426,79.858553 C12.1813426,82.1455007 14.0387191,84 16.3337185,84 C18.6267013,84 20.4860945,82.1455007 20.4860945,79.858553 L20.4860945,57.9364402 L23.5171878,57.9364402 L23.5171878,79.858553 C23.5171878,82.1455007 25.376581,84 27.6695638,84 C29.9625465,84 31.8219397,82.1455007 31.8219397,79.858553 L31.8219397,57.9364402 L35.2765391,57.9364402 C35.7827296,57.9364402 36.2627031,57.707142 36.5793243,57.3149214 C36.8979622,56.9227008 37.0229973,56.4057742 36.9181292,55.9129843 L33.7821677,41.1916388 L37.3900359,49.076278 C37.9688275,50.3454635 39.2272455,51.0957111 40.5421309,51.0957111 C41.0221044,51.0957111 41.5101447,50.9951417 41.9760014,50.783946 C43.7143929,49.9914593 44.4807372,47.9438668 43.6861591,46.2100507 L32.144611,20.9932851 Z" id="Fill-3"></path>
                    <path d="M73.0019935,16 C77.4216297,16 81,12.4207378 81,8.00199402 C81,3.57926221 77.4216297,0 73.0019935,0 C68.5803638,0 65,3.57926221 65,8.00199402 C65,12.4207378 68.5803638,16 73.0019935,16" id="Fill-5"></path>
                    <path d="M83.144611,20.9932851 C82.5759029,19.7442134 81.3457186,19.026148 80.0550335,19 L65.9361486,19 C64.6454635,19.026148 63.423346,19.7442134 62.8546379,20.9932851 L51.3151065,46.2100507 C50.5185118,47.9438668 51.284856,49.9914593 53.0212308,50.783946 C53.4891042,50.9951417 53.9791612,51.0957111 54.4591347,51.0957111 C55.7720034,51.0957111 57.0304214,50.3454635 57.609213,49.076278 L61.1989309,41.2298552 L58.073053,55.9109729 C57.9661681,56.4057742 58.0932199,56.9206894 58.4098411,57.3149214 C58.7304957,57.707142 59.2084525,57.9364402 59.7146431,57.9364402 L63.1813426,57.9364402 L63.1813426,79.858553 C63.1813426,82.1455007 65.0387191,84 67.3337185,84 C69.6267013,84 71.4860945,82.1455007 71.4860945,79.858553 L71.4860945,57.9364402 L74.5171878,57.9364402 L74.5171878,79.858553 C74.5171878,82.1455007 76.376581,84 78.6695638,84 C80.9625465,84 82.8219397,82.1455007 82.8219397,79.858553 L82.8219397,57.9364402 L86.2765391,57.9364402 C86.7827296,57.9364402 87.2627031,57.707142 87.5793243,57.3149214 C87.8979622,56.9227008 88.0229973,56.4057742 87.9181292,55.9129843 L84.7821677,41.1916388 L88.3900359,49.076278 C88.9688275,50.3454635 90.2272455,51.0957111 91.5421309,51.0957111 C92.0221044,51.0957111 92.5101447,50.9951417 92.9760014,50.783946 C94.7143929,49.9914593 95.4807372,47.9438668 94.6861591,46.2100507 L83.144611,20.9932851 Z" id="Fill-7"></path>
                    <path d="M123.001994,16 C127.419636,16 131,12.4207378 131,8.00199402 C131,3.57926221 127.419636,0 123.001994,0 C118.580364,0 115,3.57926221 115,8.00199402 C115,12.4207378 118.580364,16 123.001994,16" id="Fill-9"></path>
                    <path d="M133.144611,20.9932851 C132.573886,19.7442134 131.345719,19.026148 130.055034,19 L115.936149,19 C114.645463,19.026148 113.423346,19.7442134 112.854638,20.9932851 L101.315106,46.2100507 C100.518512,47.9438668 101.284856,49.9914593 103.021231,50.783946 C103.489104,50.9951417 103.979161,51.0957111 104.459135,51.0957111 C105.772003,51.0957111 107.030421,50.3454635 107.607196,49.076278 L111.198931,41.2298552 L108.073053,55.9109729 C107.966168,56.4057742 108.091203,56.9206894 108.409841,57.3149214 C108.730496,57.707142 109.208453,57.9364402 109.714643,57.9364402 L113.181343,57.9364402 L113.181343,79.858553 C113.181343,82.1455007 115.038719,84 117.333719,84 C119.626701,84 121.486095,82.1455007 121.486095,79.858553 L121.486095,57.9364402 L124.517188,57.9364402 L124.517188,79.858553 C124.517188,82.1455007 126.376581,84 128.669564,84 C130.962547,84 132.82194,82.1455007 132.82194,79.858553 L132.82194,57.9364402 L136.276539,57.9364402 C136.780713,57.9364402 137.260686,57.707142 137.579324,57.3149214 C137.897962,56.9227008 138.022997,56.4057742 137.918129,55.9129843 L134.782168,41.1916388 L138.390036,49.076278 C138.968827,50.3454635 140.227245,51.0957111 141.542131,51.0957111 C142.022104,51.0957111 142.510145,50.9951417 142.976001,50.783946 C144.714393,49.9914593 145.480737,47.9438668 144.686159,46.2100507 L133.144611,20.9932851 Z" id="Fill-11"></path>
                    <path d="M174.001994,16 C178.419636,16 182,12.4207378 182,8.00199402 C182,3.57926221 178.419636,0 174.001994,0 C169.580364,0 166,3.57926221 166,8.00199402 C166,12.4207378 169.580364,16 174.001994,16" id="Fill-13"></path>
                    <path d="M184.145401,20.9932851 C183.574676,19.7442134 182.346509,19.026148 181.055824,19 L166.936939,19 C165.646253,19.026148 164.424136,19.7442134 163.855428,20.9932851 L152.31388,46.2100507 C151.519302,47.9438668 152.285646,49.9914593 154.022021,50.783946 C154.489894,50.9951417 154.979951,51.0957111 155.459925,51.0957111 C156.772793,51.0957111 158.031211,50.3454635 158.607986,49.076278 L162.199721,41.2298552 L159.071826,55.9109729 C158.966958,56.4057742 159.091993,56.9206894 159.410631,57.3149214 C159.731286,57.707142 160.209242,57.9364402 160.715433,57.9364402 L164.180116,57.9364402 L164.180116,79.858553 C164.180116,82.1455007 166.039509,84 168.334509,84 C170.627491,84 172.486885,82.1455007 172.486885,79.858553 L172.486885,57.9364402 L175.517978,57.9364402 L175.517978,79.858553 C175.517978,82.1455007 177.377371,84 179.670354,84 C181.963337,84 183.82273,82.1455007 183.82273,79.858553 L183.82273,57.9364402 L187.275312,57.9364402 C187.781503,57.9364402 188.261477,57.707142 188.580114,57.3149214 C188.898752,56.9227008 189.023787,56.4057742 188.918919,55.9129843 L185.782958,41.1916388 L189.390826,49.076278 C189.969618,50.3454635 191.228036,51.0957111 192.542921,51.0957111 C193.022895,51.0957111 193.510935,50.9951417 193.976791,50.783946 C195.715183,49.9914593 196.481527,47.9438668 195.684933,46.2100507 L184.145401,20.9932851 Z" id="Fill-15"></path>
                </g>
            </g>
        </g>
    </g>
</svg>
